svg/fluentui-system-icons/ic_fluent_call_park_16_regular.svg

<svg width="16" height="16" viewBox="0 0 16 16" fill="none" xmlns="http://www.w3.org/2000/svg">
<path d="M10.5002 2C10.2241 2 10.0002 2.22386 10.0002 2.5V7.5C10.0002 7.77614 10.2241 8 10.5002 8C10.7764 8 11.0002 7.77614 11.0002 7.5V6H12.0002C13.1048 6 14.0002 5.10457 14.0002 4C14.0002 2.89543 13.1048 2 12.0002 2H10.5002ZM12.0002 5H11.0002V3H12.0002C12.5525 3 13.0002 3.44772 13.0002 4C13.0002 4.55228 12.5525 5 12.0002 5ZM6.57033 3.00577C6.17963 2.18481 5.22535 1.79977 4.37432 2.11971L4.11117 2.21865C2.76081 2.7263 1.80275 4.04962 2.04007 5.55514C2.24817 6.87523 2.68742 8.6291 3.62827 10.1058C4.47771 11.439 5.60617 12.5374 6.54598 13.3186C7.80091 14.3617 9.55463 14.1347 10.6806 13.0718L10.9766 12.7924C11.6832 12.1254 11.7111 11.0106 11.0389 10.309L10.2302 9.4651C9.88115 9.10085 9.37238 8.93646 8.87619 9.02759L7.36997 9.30425C7.31616 9.25818 7.25133 9.20005 7.17971 9.13058C6.96899 8.92618 6.7076 8.63142 6.49367 8.26515C6.27983 7.89902 6.15152 7.52609 6.077 7.24154C6.05119 7.14296 6.03217 7.0563 6.01841 6.9859L6.96338 5.82555C7.32916 5.37641 7.40365 4.7568 7.15473 4.23376L6.57033 3.00577ZM6.9456 10.2438L6.94743 10.2451C7.05739 10.3229 7.19431 10.3532 7.32681 10.3289L9.05684 10.0111C9.22224 9.98076 9.39183 10.0356 9.50818 10.157L10.3169 11.0009C10.605 11.3016 10.593 11.7794 10.2902 12.0652L9.99413 12.3447C9.17359 13.1192 7.9887 13.2174 7.1852 12.5495C6.28914 11.8047 5.24494 10.7822 4.47164 9.56846C3.63723 8.25882 3.22662 6.66022 3.02787 5.39943C2.87675 4.44075 3.47835 3.52488 4.46307 3.15468L4.72622 3.05575C5.09095 2.91863 5.49992 3.08365 5.66736 3.43549L6.25177 4.66348C6.33474 4.83783 6.30991 5.04436 6.18799 5.19408L5.10176 6.52787C5.01801 6.63071 4.99206 6.89455 4.99206 6.89455L4.99217 6.89562L4.99232 6.89701L4.99272 6.90071L4.99398 6.91175C4.99503 6.92071 4.99653 6.93282 4.99855 6.94789C5.0026 6.978 5.00874 7.01999 5.01764 7.07213C5.03541 7.17628 5.0643 7.3218 5.10963 7.49489C5.19976 7.83903 5.35768 8.30296 5.63017 8.76949C5.90257 9.23588 6.22846 9.60103 6.48345 9.84837C6.61168 9.97275 6.72399 10.0693 6.80579 10.1358C6.84675 10.1692 6.88022 10.1951 6.90442 10.2134C6.91652 10.2226 6.92632 10.2298 6.93359 10.2351L6.94258 10.2416L6.9456 10.2438Z" fill="#212121"/>
</svg>

<svg xmlns="http://www.w3.org/2000/svg" width="16" height="16"><path d="M10.5 2a.5.5 0 0 0-.5.5v5a.5.5 0 0 0 1 0V6h1a2 2 0 1 0 0-4h-1.5ZM12 5h-1V3h1a1 1 0 1 1 0 2ZM6.57 3.006a1.75 1.75 0 0 0-2.196-.886l-.263.099c-1.35.507-2.308 1.83-2.07 3.336.207 1.32.646 3.074 1.587 4.55.85 1.334 1.978 2.432 2.918 3.214 1.255 1.043 3.009.816 4.135-.247l.296-.28a1.75 1.75 0 0 0 .062-2.483l-.809-.844a1.5 1.5 0 0 0-1.354-.437l-1.506.276a4.134 4.134 0 0 1-.876-1.04 4.13 4.13 0 0 1-.476-1.278l.945-1.16a1.5 1.5 0 0 0 .192-1.592L6.57 3.006Zm.376 7.238.001.001a.5.5 0 0 0 .38.084l1.73-.318a.5.5 0 0 1 .451.146l.809.844a.75.75 0 0 1-.027 1.064l-.296.28c-.82.774-2.005.872-2.809.204-.896-.744-1.94-1.767-2.713-2.98-.835-1.31-1.245-2.909-1.444-4.17-.151-.958.45-1.874 1.435-2.244l.263-.1a.75.75 0 0 1 .941.38l.585 1.228a.5.5 0 0 1-.064.531L5.102 6.528c-.084.103-.11.367-.11.367v.006l.002.01a2.222 2.222 0 0 0 .024.161A5.128 5.128 0 0 0 5.63 8.77a5.132 5.132 0 0 0 1.303 1.466l.009.007.003.002Z"/></svg>
